packages/core/src/svgs/quick.svg

<svg width="24" height="24" viewBox="0 0 24 24" fill="none" xmlns="http://www.w3.org/2000/svg">
<g clip-path="url(#clip0_31_16751)">
<path d="M0 0H24V24H0V0Z" fill="#F0F3FA"/>
<path fill-rule="evenodd" clip-rule="evenodd" d="M18.4988 14.2614C18.5031 12.4931 17.6867 9.81792 14.328 8.96207C15.4191 9.22992 17.4497 9.8175 18.2494 10.3806C17.6365 9.54235 15.7903 7.86492 13.3067 7.86492C13.7691 7.48049 14.6215 6.61307 14.9061 5.79235C16.0902 6.35383 17.0903 7.24031 17.7898 8.34845C18.4894 9.45659 18.8595 10.7407 18.8571 12.0512C18.858 12.8024 18.737 13.5489 18.4988 14.2614ZM5.14282 12.0894V12.0512C5.14282 8.23607 8.21268 5.14307 12 5.14307C12.8078 5.14307 13.5831 5.28364 14.3027 5.54207C14.1227 5.83435 13.6384 6.38078 12.6467 7.01635C12.6351 6.85221 12.5644 6.45921 12.3767 6.20164C12.3394 6.38035 12.072 6.82949 11.3053 7.19549C11.1141 7.28678 10.9264 7.36907 10.7481 7.44664C10.0363 7.75864 9.48725 7.99864 9.53825 8.46792C9.58968 8.93721 9.93811 9.05935 10.1061 9.06149C9.95696 9.10649 9.62525 9.15278 9.48897 8.97578C9.28068 9.21621 8.77925 9.69321 8.43854 9.67607C8.01254 9.65464 7.94139 9.20464 8.08368 8.97578C7.50896 9.34007 6.49539 10.4158 7.04054 11.7996C7.62811 11.4422 9.14354 10.7874 10.5017 11.0248C10.8943 11.0934 11.2045 11.1358 11.4565 11.1701C12.2935 11.2836 12.4868 11.3102 12.9291 11.9295C13.5047 12.7352 12.9518 15.6756 9.48897 15.9302C7.00839 16.1124 5.64597 13.7016 5.14325 12.0894H5.14282Z" fill="#4289C7"/>
<path d="M5.93066 11.8134C5.93066 8.53057 8.57238 5.86914 11.8308 5.86914C22.6809 6.31871 8.53552 21.5253 5.93066 11.8134Z" fill="url(#paint0_linear_31_16751)"/>
<path fill-rule="evenodd" clip-rule="evenodd" d="M7.47222 11.4584C7.45733 11.4772 7.44304 11.4965 7.42937 11.5163C8.76222 11.2977 11.6208 11.0633 12.3648 11.9148C13.1088 12.7664 12.8859 13.3947 12.6747 13.9047C12.0849 15.3275 7.43751 17.3247 5.14551 12.0168C5.05894 14.3457 7.05394 19.1958 12.5255 18.8375C19.4812 18.3824 17.3358 9.34469 11.3889 9.75997L11.3384 9.77069C11.9555 10.0548 12.3425 10.525 12.4835 10.7898C10.1114 10.2134 8.27751 10.9501 7.47222 11.4584Z" fill="#191E44"/>
<path d="M12.1795 11.7263C13.4421 12.565 13.2724 13.8816 13.0294 14.4349C13.3139 14.1272 13.7605 13.9223 13.9487 13.858C14.2521 13.963 14.6078 14.5939 13.6015 16.2782C12.5957 17.9625 10.4944 18.1798 9.56909 18.0782L10.1764 18.4888L14.6858 17.3963L15.6222 13.3425L12.1795 11.6826V11.7263Z" fill="#0C1D63"/>
<path d="M9.15039 12.4355C8.71411 12.3952 7.75968 12.1552 7.43311 11.5158C8.15825 11.0409 10.191 10.3329 12.5232 11.3002C12.4911 11.1656 12.369 10.8601 12.1345 10.7113C12.2155 10.7251 12.399 10.7615 12.4881 10.7945C12.4135 10.6706 12.2142 10.3835 12.0107 10.2271C13.5441 10.4401 16.6105 11.6431 16.6105 14.7536C16.6105 17.8642 14.2062 18.7419 13.0045 18.792C12.012 18.9579 9.60211 18.9069 7.75068 17.4206C7.70671 17.3895 7.66516 17.3551 7.62639 17.3178L7.75068 17.4206C8.13468 17.6966 9.07839 18.1042 10.6444 18.1042C12.8644 18.1042 15.579 15.8761 14.5122 13.4388C14.4977 13.6689 14.2555 14.2389 13.4022 14.679C13.7031 13.6449 13.569 11.5483 10.6272 11.4378C9.85068 11.3893 8.46853 11.5209 9.15039 12.4355Z" fill="#262F72"/>
<path d="M16.3816 9.8732C15.4962 9.29206 14.687 9.02934 14.2297 8.93506C15.7285 9.11506 16.4497 9.43649 16.6233 9.57449C16.5542 9.4282 16.4734 9.28774 16.3816 9.15449C17.0442 9.38849 17.9189 10.0845 18.2737 10.4029C17.7706 10.1201 16.8025 9.93192 16.3816 9.8732Z" fill="#161A3D"/>
<path d="M12.5799 7.76222C12.4851 8.16507 12.1804 8.54307 12.0403 8.6815C14.8761 7.4395 15.2679 5.23322 15.1093 4.28564C14.8993 5.09136 14.322 5.9635 14.0593 6.29907L14.5341 6.18722C13.9406 7.09022 12.984 7.6135 12.5799 7.76222Z" fill="#18214A"/>
<path d="M10.7345 8.17243C10.3107 8.37515 10.2455 8.67129 10.2657 8.79429C11.4734 8.84358 11.8719 8.00315 11.9199 7.57715C11.7369 7.73443 11.2642 7.91872 10.7345 8.17243Z" fill="#253155"/>
<path fill-rule="evenodd" clip-rule="evenodd" d="M10.4641 8.79447C10.6784 8.73104 10.9145 8.61319 11.0705 8.4079C11.2055 8.23047 11.2891 8.04876 11.3379 7.89404C11.2865 7.91804 11.2329 7.94204 11.1777 7.96733C11.0388 8.03076 10.8888 8.09847 10.7345 8.17261C10.3107 8.37533 10.2455 8.67147 10.2657 8.79447C10.3342 8.79747 10.4002 8.79704 10.4641 8.79447Z" fill="#5D98CE"/>
<path d="M8.05234 9.91517C7.81963 9.90617 7.59249 10.3587 7.50806 10.5863C7.92763 10.1655 8.09649 10.2859 8.12863 10.3986C8.19977 10.2413 8.28463 9.92417 8.05234 9.91517Z" fill="#54A2CC"/>
<path fill-rule="evenodd" clip-rule="evenodd" d="M7.75238 10.123C7.85438 10.0592 7.96024 10.018 8.03181 10.0502C8.09652 10.0789 8.14967 10.1423 8.19038 10.2122C8.22124 10.0686 8.20924 9.92161 8.05195 9.91519C7.94695 9.9109 7.84238 10.0013 7.75195 10.123H7.75238Z" fill="#3A415A"/>
</g>
<defs>
<linearGradient id="paint0_linear_31_16751" x1="8.06838" y1="7.09314" x2="10.4414" y2="10.0267" gradientUnits="userSpaceOnUse">
<stop stop-color="white" stop-opacity="0.41"/>
<stop offset="1" stop-color="white" stop-opacity="0"/>
</linearGradient>
<clipPath id="clip0_31_16751">
<rect width="24" height="24" fill="white"/>
</clipPath>
</defs>
</svg>

<svg xmlns="http://www.w3.org/2000/svg" width="24" height="24" fill="none" viewBox="0 0 24 24"><g clip-path="url(#a)"><path fill="#F0F3FA" d="M0 0h24v24H0z"/><path fill="#4289C7" fill-rule="evenodd" d="M18.499 14.261c.004-1.768-.812-4.443-4.171-5.299 1.091.268 3.122.856 3.921 1.419-.612-.839-2.459-2.516-4.942-2.516.462-.385 1.314-1.252 1.6-2.073a6.91 6.91 0 0 1 3.95 6.26c.001.75-.12 1.497-.358 2.21M5.143 12.09v-.038c0-3.815 3.07-6.908 6.857-6.908a6.8 6.8 0 0 1 2.303.4c-.18.291-.665.838-1.656 1.473-.012-.164-.083-.557-.27-.814-.038.178-.305.627-1.072.993a17 17 0 0 1-.557.252c-.712.312-1.26.552-1.21 1.02.052.47.4.592.568.594-.149.045-.48.092-.617-.085-.208.24-.71.717-1.05.7-.426-.021-.498-.471-.355-.7-.575.364-1.589 1.44-1.043 2.824.587-.358 2.103-1.013 3.46-.775.393.068.704.11.956.145.836.114 1.03.14 1.472.76.576.805.023 3.746-3.44 4-2.48.182-3.843-2.228-4.346-3.84" clip-rule="evenodd"/><path fill="url(#b)" d="M5.93 11.813c0-3.282 2.642-5.944 5.9-5.944 10.85.45-3.294 15.656-5.9 5.944"/><path fill="#191E44" fill-rule="evenodd" d="m7.472 11.458-.043.058c1.333-.218 4.192-.453 4.936.399.744.851.52 1.48.31 1.99-.59 1.423-5.237 3.42-7.53-1.888-.086 2.329 1.909 7.179 7.38 6.82 6.956-.455 4.81-9.492-1.136-9.077l-.05.01c.617.285 1.003.755 1.144 1.02-2.372-.577-4.205.16-5.01.668" clip-rule="evenodd"/><path fill="#0C1D63" d="M12.18 11.726c1.262.839 1.092 2.156.85 2.709.284-.308.73-.513.919-.577.303.105.659.736-.348 2.42-1.005 1.685-3.107 1.902-4.032 1.8l.607.41 4.51-1.092.936-4.054-3.442-1.66z"/><path fill="#262F72" d="M9.15 12.436c-.436-.04-1.39-.28-1.717-.92.725-.475 2.758-1.183 5.09-.216-.032-.134-.154-.44-.389-.589.082.014.265.05.354.083-.074-.123-.274-.41-.477-.567 1.533.213 4.6 1.416 4.6 4.527 0 3.11-2.405 3.988-3.607 4.038-.992.166-3.402.115-5.253-1.371a1 1 0 0 1-.125-.103l.125.103c.384.276 1.327.683 2.893.683 2.22 0 4.935-2.228 3.868-4.665-.014.23-.257.8-1.11 1.24.301-1.034.167-3.13-2.775-3.241-.776-.049-2.158.083-1.477.997"/><path fill="#161A3D" d="M16.382 9.873c-.886-.58-1.695-.844-2.152-.938 1.499.18 2.22.501 2.393.64a3 3 0 0 0-.241-.42c.662.233 1.537.93 1.892 1.248-.503-.283-1.472-.471-1.892-.53"/><path fill="#18214A" d="M12.58 7.762c-.095.403-.4.781-.54.92 2.836-1.243 3.228-3.449 3.07-4.396-.21.805-.788 1.678-1.05 2.013l.474-.112c-.593.903-1.55 1.426-1.954 1.575"/><path fill="#253155" d="M10.735 8.172c-.424.203-.49.5-.47.622 1.208.05 1.607-.79 1.655-1.217-.183.157-.656.342-1.185.595"/><path fill="#5D98CE" fill-rule="evenodd" d="M10.464 8.794c.214-.063.45-.18.606-.386.136-.178.22-.36.268-.514l-.16.073q-.212.095-.444.206c-.423.202-.489.498-.468.621q.102.005.198 0" clip-rule="evenodd"/><path fill="#54A2CC" d="M8.052 9.915c-.232-.009-.46.444-.544.671.42-.42.588-.3.62-.187.072-.158.157-.475-.076-.484"/><path fill="#3A415A" fill-rule="evenodd" d="M7.752 10.123c.102-.064.208-.105.28-.073a.4.4 0 0 1 .158.162c.031-.143.02-.29-.138-.297-.105-.004-.21.086-.3.208" clip-rule="evenodd"/></g><defs><linearGradient id="b" x1="8.068" x2="10.441" y1="7.093" y2="10.027" gradientUnits="userSpaceOnUse"><stop stop-color="#fff" stop-opacity=".41"/><stop offset="1" stop-color="#fff" stop-opacity="0"/></linearGradient><clipPath id="a"><path fill="#fff" d="M0 0h24v24H0z"/></clipPath></defs></svg>
